X:442
T:Reel 442
L:1/8
M: 4/4
K: G minor
dc|BABG(3ABcdc|BG(3GFGd2gf|dcAcAcFA|cFFAF2dc|BABcdggf|dggabagf|dcd=ef2ef|gbagfddc|fefdecdB|BcBAG2de|fefd=e2de|AcFAc2Bc|dcd=ef2fe|dc(3ABcdBGA|BABcd=efd|(3cdedBc2|.abc